T: Humours Of Trim, The
M: 6/8
L: 1/8
K: Dmaj
A|(FE).F (DE).D D2d (cA)G|(FE).F (FE).D A2F (GF).E|A|:FEF DED D2d cAG|FEF FED A2F GFE|D2d cAd fed cAG|FAF GBG A2F GFE||
